X: 247
U:~=!turn!
M:C|
L:1/8
K:D
g | (f/2g/2a) (AB) ABdF | EDEF TB3 g | (f/2g/2a) (AB) AB{/c}dF | EDEF A2 z :|
e | Tf2 fd {/f}g2 (ge) | Tf2 (fd) TB2 (de) | Tf2 (fd) {/f}g2 (ge) | (f/2g/2a) (ef) {/c}d3 e |


